common/svg/bell-icon.svg

<svg fill="none" height="20" viewBox="0 0 20 20" width="20" xmlns="http://www.w3.org/2000/svg"><g fill="#000"><path d="m10 19.5238c1.315 0 2.381-1.066 2.381-2.3809h-4.76195c0 1.3149 1.06599 2.3809 2.38095 2.3809z"/><path d="m11.1847 1.78457c.0038-.03878.0058-.07811.0058-.1179 0-.65748-.533-1.190474-1.1905-1.190474-.65748 0-1.19047.532994-1.19047 1.190474 0 .03979.00195.07912.00576.11791-2.71981.54929-4.76764 2.95273-4.76764 5.83447 0 1.30668-.59526 7.14285-2.38098 8.33335h16.66663c-1.7857-1.1905-2.3809-7.02667-2.3809-8.33335 0-2.88175-2.0478-5.28521-4.7677-5.83448z"/></g></svg>

<svg width="20" height="20" viewBox="0 0 20 20" fill="none" xmlns="http://www.w3.org/2000/svg">
<path d="M10 19.5238C11.315 19.5238 12.381 18.4578 12.381 17.1429H7.61905C7.61905 18.4578 8.68504 19.5238 10 19.5238Z" fill="black"/>
<path d="M11.1847 1.78457C11.1885 1.74579 11.1905 1.70646 11.1905 1.66667C11.1905 1.00919 10.6575 0.476196 10 0.476196C9.34252 0.476196 8.80953 1.00919 8.80953 1.66667C8.80953 1.70646 8.81148 1.74579 8.81529 1.78458C6.09548 2.33387 4.04765 4.73731 4.04765 7.61905C4.04765 8.92573 3.45239 14.7619 1.66667 15.9524H18.3333C16.5476 14.7619 15.9524 8.92573 15.9524 7.61905C15.9524 4.7373 13.9046 2.33384 11.1847 1.78457Z" fill="black"/>
</svg>
